X: 1
T: Somebody I Used to Know
N: Original
Z: https://joelmcdonald8blog.wordpress.com/wp-content/uploads/2013/06/somebodythatiusedtoknow-sheet-music.pdf
M: 4/4
Q: 1/4=100
L: 1/8
K: F
"d"c2 c2 "C"g2 g2|"d"abc'a "C"g4|"d"f2f2 "C"e2e2|"d"d2d2 "C"c2z2|
"d"c2c2 "C"g2g2|"d"abc'a "C"g2z2|"d"d2d2 "C"z2e2|"d"d2z2 "C"z/ z/2 e/4f/4g/4 a2|"d"z2 AA "C"GGGG|
"d"c2G2 "C"F2 EE|"d"D4- "C"D4|"d"z4 "C"z4|

